!!!!SEGMENT: pl-kk--kk-i-389--006-008_anonim--missa-no-6-dona.krn
!!!cenid: 17xx:2498
!!!COM: Anonim
!!!COM-rismID: pe30004985
!!!CDT:
!!!CNT:
!!!OPR: [Missa] No. 6.
!!!OTL: Dona
!!!OMV: 008
!!!PDT:
!!!AGN: Sacred; Mass
!!!YEC: Copyright 2022 Narodowy Instytut Fryderyka Chopina (https://polishscores.org)
!!!YEM: License CC-BY-4.0 (https://creativecommons.org/licenses/by/4.0)
!!!SMS-siglum: PL-Kk
!!!SMS-shelfmark: Kk.I.389
!!!SMS-variant:
!!!SMS-altvar:
!!!SMS-shelfwork: 006-008 M
!!!NIFC-rismSourceID: 1001146182
!!!NIFC-rismChildID: 1001147228
!!!NIFC-islandoraID: pl-kk:6976
!!!URL-pdf-islandora: https://repozytorium.nifc.pl/islandora/object/pl-kk%3A6976/datastream/PDF/view
!!!URL-scan: https://polish.musicsources.pl/pl/lokalizacje/galeria/rekopisy/5999/1 @EN{Scan on Polish Music Sources Website} @PL{Skany w portalu Dziedzictwo Muzyki Polskiej w otwartym dostępie}
!!!IIIF:
!!!ONB-nifc: UWAGA: S – skan 10-12, A – 29-31 , T – 48-50 , B – 67-69 . Części Mszy: Rorate, Kyrie, Gloria, Graduale, Sanctus, Benedictus, Agnus, Dona.
!!!AIN: 1 alto 1 bass 1 soprn 1 tenor
!!!key: D
**kern	**text	**kern	**text	**kern	**text	**kern	**text
*part4	*part4	*part3	*part3	*part2	*part2	*part1	*part1
*staff4	*staff4	*staff3	*staff3	*staff2	*staff2	*staff1	*staff1
*I"Basso.	*	*I"Tenore.	*	*I"Alto.	*	*I"Soprano.	*
*I'B	*	*I'T	*	*I'A	*	*I'S	*
*ICvox	*	*ICvox	*	*ICvox	*	*ICvox	*
*Ibass	*	*Itenor	*	*Ialto	*	*Isoprn	*
*clefF4	*	*clefC4	*	*clefC3	*	*clefC1	*
*k[f#c#]	*	*k[f#c#]	*	*k[f#c#]	*	*k[f#c#]	*
*D:	*	*D:	*	*D:	*	*D:	*
*M2/2	*	*M2/2	*	*M2/2	*	*M2/2	*
*met(c|)	*	*met(c|)	*	*met(c|)	*	*met(c|)	*
*all\right	*	*	*	*	*	*	*
*2\right	*	*all\right	*	*	*	*	*
*	*	*2\right	*	*all\right	*	*	*
*	*	*	*	*2\right	*	*	*
=1	=1	=1	=1	=1	=1	=1	=1
!	!	!	!	!	!	!LO:TX:t=P:problem:brak metrum (kontynuacja części Agnus Dei)	!
*	*	*	*	*	*	*2\right	*
*	*	*	*	*	*	*all\right	*
2.D\	Do-	2.A\	Do-	2.f#\	Do-	2.dd\	Do-
4D\	-na	4A\	-na	4f#\	-na	4dd\	-na
=2	=2	=2	=2	=2	=2	=2	=2
2C#/	no-	2A\	no-	2e\	no-	2gg\	no-
2D\	-bis	2A\	-bis	2f#\	-bis	2ff#X\	-bis
!	!	!	!	!	!	!LO:LB:g=original	!
=3	=3	=3	=3	=3	=3	=3	=3
4E\	pa-	1A	pa-	1g	pa-	1cc#	pa-
4D\	.	.	.	.	.	.	.
4C#/	.	.	.	.	.	.	.
4AA/	.	.	.	.	.	.	.
=4	=4	=4	=4	=4	=4	=4	=4
2D\	-cem	1A	-cem	1f#	-cem	1dd	-cem,
2r	.	.	.	.	.	.	.
=5	=5	=5	=5	=5	=5	=5	=5
2d\	do-	2A\	do-	2f#\	Do-	2dd\	do-
2c#\	-na	2A\	-na	2e\	-na	2ee\	-na
=6	=6	=6	=6	=6	=6	=6	=6
2B\	no-	2e\	no-	2g#X\	no-	2dd\	no-
2A\	-bis	2e\	-bis	2a\	-bis	2cc#X\	-bis
!LO:LB:g=original	!	!	!	!	!	!	!
=7	=7	=7	=7	=7	=7	=7	=7
4D/	pa-	1e	pa-	2a\	pa-	1b	pa-
4BB/	.	.	.	.	.	.	.
2E\	.	.	.	2g#X\	.	.	.
=8	=8	=8	=8	=8	=8	=8	=8
2AA/	-cem.	2e\	-cem	2a\	-cem	2cc#\	-cem,
2r	.	2r	.	2r	.	2r	.
!	!	!LO:LB:g=original	!	!LO:LB:g=original	!	!	!
=9	=9	=9	=9	=9	=9	=9	=9
2AA/	Do-	2e\	do-	2a\	Do-	2cc#\	Do-
2A\	-na	2e\	-na	2a\	-na	2cc#\	-na
=10	=10	=10	=10	=10	=10	=10	=10
2A\	no-	4e\	no-	2e\	no-	4cc#\	no-
.	.	4d\	.	.	.	4b\	.
2A\	-bis	4c#\	.	2e\	-bis	4a\	.
.	.	4d\	-bis	.	.	4b\	-bis
=11	=11	=11	=11	=11	=11	=11	=11
2AA/	do-	2e\	do-	2gn\	Do-	2cc#\	Do-
2A\	-na	2e\	-na	2g\	-na	2cc#\	-na
=12	=12	=12	=12	=12	=12	=12	=12
2A\	no-	4e\	pa-	4g\	no-	4cc#\	pa-
.	.	4d\	.	4f#\	.	4b\	.
2A\	-bis,	4c#\	.	4e\	.	4a\	.
.	.	4e\	-cem	4g\	-bis	4cc#\	-cem
!	!	!	!	!	!	!LO:LB;g=original	!
=13	=13	=13	=13	=13	=13	=13	=13
4D/	do-	4d\	do-	4f#\	Do-	4a\	do-
4C#/	.	4c#\	-na	4e\	-na	4a\	-na
4D/	.	4A\	no-	4f#\	no-	4a\	no-
4E/	-na	4A\	-bis	4g\	-bis	4cc#\	-bis
=14	=14	=14	=14	=14	=14	=14	=14
4F#\	pa-	1A	pa-	2f#\	pa-	2dd\	pa-
4G\	.	.	.	.	.	.	.
4A\	.	.	.	2e\	.	2cc#\	.
4AA/	.	.	.	.	.	.	.
!LO:LB:g=original	!	!	!	!	!	!	!
=15	=15	=15	=15	=15	=15	=15	=15
2D\	-cem,	2A\	-cem	2f#\	-cem	2dd\	-cem,
2r	.	2r	.	2r	.	2r	.
!	!	!LO:LB:g=original	!	!	!	!	!
=16	=16	=16	=16	=16	=16	=16	=16
!	!	!	!	!	!	!LO:TX:t=P:problem:brak 7 taktów (powtórzenia tt. 9-15)	!
2AA/	Do-	2e\	Do-	2a\	Do-	1ryy	.
2A\	-na	2e\	-na	2e\	-na	.	.
!	!	!	!	!LO:LB:g=original	!	!	!
=17	=17	=17	=17	=17	=17	=17	=17
2A\	no-	4e\	no-	2c#\	no-	1ryy	.
.	.	4d\	.	.	.	.	.
2A\	-bis	4c#\	.	2e\	-bis	.	.
.	.	4d\	-bis	.	.	.	.
=18	=18	=18	=18	=18	=18	=18	=18
2AA/	do-	2e\	Do-	2g\	Do-	1ryy	.
2A\	-na	2e\	-na	2g\	-na	.	.
=19	=19	=19	=19	=19	=19	=19	=19
2A\	no-	4e\	pa-	4g\	no-	1ryy	.
.	.	4d\	.	4f#\	.	.	.
2A\	-bis	4c#\	.	4e\	.	.	.
.	.	4e\	-cem	4g\	-bis	.	.
=20	=20	=20	=20	=20	=20	=20	=20
4D/	do-	4d\	do-	4f#\	do-	1ryy	.
4C#/	.	4c#\	-na	4e\	.	.	.
4D/	.	4A\	no-	4f#\	-na	.	.
4E/	-na	4A\	-bis	4g\	.	.	.
=21	=21	=21	=21	=21	=21	=21	=21
4F#\	pa-	1A	pa-	2f#\	pa-	1ryy	.
4G\	.	.	.	.	.	.	.
4A\	.	.	.	2e\	.	.	.
4AA/	.	.	.	.	.	.	.
=22	=22	=22	=22	=22	=22	=22	=22
2D\	-cem	2A\	-cem	2f#\	-cem	1ryy	.
2r	.	2r	.	2r	.	.	.
!LO:LB:g=original	!	!	!	!	!	!	!
=23	=23	=23	=23	=23	=23	=23	=23
4G\	do-	4e\	do-	2.g\	do-	2.cc#\	Do-
4F#\	.	4d\	-na	.	.	.	.
!	!	!LO:LB:g=original	!	!	!	!	!
4E\	.	4c#\	no-	.	.	.	.
4G\	-na	4e\	-bis	4g\	-na	4cc#\	-na
=24	=24	=24	=24	=24	=24	=24	=24
4F#\	no-	4d\	pa-	4a\	no-	4dd\	no-
4E\	.	4c#\	.	4g\	.	4ee\	.
4D\	.	2A\	.	4f#\	.	4ff#\	.
4F#\	-bis	.	.	4a\	-bis	4dd\	-bis
!	!	!	!	!LO:LB:g=original	!	!	!
=25	=25	=25	=25	=25	=25	=25	=25
4E\	do-	1A	.	2g\	pa-	2ee\	pa-
4D\	-na	.	.	.	.	.	.
4C#/	pa-	.	.	2e\	.	2cc#\	.
4AA/	.	.	.	.	.	.	.
=26	=26	=26	=26	=26	=26	=26	=26
2D\	-cem,	2A\	-cem	2f#\	-cem.	2dd\	-cem..
2r	.	2r	.	2r	.	2r	.
=27	=27	=27	=27	=27	=27	=27	=27
4G\	Do-	2B\	do-	2g\	Do-	2dd\	do-
4A\	.	.	.	.	.	.	.
4B\	.	2B\	-na	2g\	-na	2dd\	-na
4c#\	-na	.	.	.	.	.	.
=28	=28	=28	=28	=28	=28	=28	=28
4d\	no-	2A\	no-	2f#\	no-	2dd\	no-
4A\	.	.	.	.	.	.	.
4F#\	.	2A\	-bis	2f#\	-bis	2dd\	-bis
4D\	-bis	.	.	.	.	.	.
!LO:LB:g=original	!	!	!	!	!	!LO:LB;g=original	!
=29	=29	=29	=29	=29	=29	=29	=29
4G\	pa-	2B\	pa-	2g\	pa-	2b\	do-
4E\	.	.	.	.	.	.	.
4A\	.	2A\	.	2e\	.	2ee\	-na
4AA/	.	.	.	.	.	.	.
=30	=30	=30	=30	=30	=30	=30	=30
2D\	-cem	2A\	-cem	2f#\	-cem	2dd\	pa-
2AA/	pa-	2A\	pa-	2e\	pa-	2cc#\	.
=31	=31	=31	=31	=31	=31	=31	=31
2D\	-cem.	2A\	-cem.	2f#\	-cem.	2dd\	-cem.
2r	.	2r	.	2r	.	2r	.
==	==	==	==	==	==	==	==
*-	*-	*-	*-	*-	*-	*-	*-
!!!system-decoration: [(s1,s2,s3,s4)]
!!!ENC: Anastazja Marusiak
!!!END: 2023-11-09
!!!YEM: Copyright © 2023 by [Copyright Holder]
!!!ENC: Leszek Kubiak
!!!END: 2023-12-12
